X:3
T:Raindrop cake(short)
M:4/4
L:1/4
K:C
Q:1/4=90
|F,/2A,/2C/2E3/2 z|E,/2G,/2B,/2D3/2 z|F,/2A,/2c,/2e,3/2 z|E,/2G,/2B,/2D3/2 z|
|F,/2A,/2C/2E3/2 z|E,/2G,/2B,/2D3/2 z|
Q:1/4=80
F,/2A,/2C/2E3/2 z|
Q:1/4=70
E,/2G,/2B,/2D3/2 z|
Q:1/4=90
|"Fmaj"E4|G2 CD|"Em" D3/2 C3/2 z/2 c'/2|B'/2 G'/2E'3/2 z3/2|
|"Fmaj"E4|G2 CD|"Em" D3/2 E3/2 z/2 c'/2|B'/2 G'/2B'3/2 z3/2|
|"Fmaj"F,/2A,/2C/2E3/2 z|"Em"E,/2G,/2B,/2D3/2 z|"Fmaj"F,/2A,/2c,/2e,3/2 z|"Em"E,/2G,/2B,/2D3/2 z|
|"Fmaj"F,/2A,/2C/2E3/2 z|"Em"E,/2G,/2B,/2D3/2 z|"Fmaj"F,/2A,/2c,/2e,3/2 z|"Em"E,/2G,/2B,/2D3/2 G|
K:D
|"Gmaj"B z/2 A z/2 e|B3/2A5/2|"F#m"A z/2 F d3/2|"Baug"A3/2 G5/2|
|"Em7" G3/2 E F/2 G/2F/2|"F#7" z3/2 D3/2C|"Bm"D4|z4|
|"Gmaj"B z/2 A z/2 e|B3/2A5/2|"F#m"A z/2 F d3/2|"Baug"A3/2 G5/2|
|"Em7" G3/2 F F E/2|"E9sus4"E3/2 E/2  DC|"D"D4|z4|
```